X:1
T:Non al suo
T:Non al suo
T:Giovanni de Macque
T:Source : Musica divina---Anversa---P.Phalesio & G.Bellero---1583. Editor: André Vierendeels (17/12/13).
T:Notes: Original clefs : G2, C2, C3, F3 Editorial accidentals above the staff
C:Giovanni de Macque
%%score [ 1 2 [ 3 4 ] ]
L:1/8
Q:1/4=120
M:4/4
K:C
V:1 treble nm="Canto" snm="C"
V:2 treble nm="Alto" snm="A"
V:3 treble-8 nm="Tenor 1" snm="T 1"
V:4 treble-8 nm="Tenor 2" snm="T 2"
V:1
 d4 c2 B2 | A4 G2 c2- | c2 B2 c2 c2 | d4 G4 | z2 A2 B2 c2 | d4 e4 | z4 z2 A2 | B2 c2 d4 | %8
w: Non al suo'a-|man- te piu|_ Di- a- na|piac- que,|non al suo'a-|man- te,|non|al suo'a- man-|
 e2 g4 ^f2 | g2 f2 e2 d2 | z2 c4 B2 | c2 c2 d4 | G4 d4 | B2 B2 ^c2 c2 | d4 B4 | e4 B4- | B4 d4- | %17
w: te piu Di-|a- na piac- que,|piu Di-|a- na piac-|que, quan-|do per tal ven-|tu- ra|tut- t'ig-|* nu-|
 d4 c4- | c4 B4 | c8- | c8 | d8- | d8 | G4 A2 A2 | _B4 A4- | A4 G4 | G6 A2 | B2 c2 d2 c2 | %28
w: * da|_ la|vi-||de'in-|_|me- zo de|le ge-|* lid'|ac- *||
 B2 A2 d2 cB | A2 G2 ^F4 | G4 d4 | d2 d2 B2 c2 | d8- | d4 e4- | e4 d4- | d4 g4 | f8 | e8 | z4 A4 | %39
w: ||que, ch'a|me la pa- sto-|rel-|* l'al-|* pe-|* str'e|cru-|da,|po-|
 c4 B4 | A4 d4 | c2 A2 B2 c2 | d3 c _B4 | A4 z4 | z2 d2 f2 f2 | e2 c2 c2 d2 | e2 A2 d4 | c6 A2 | %48
w: st'a ba-|gnar' un|leg- gia- det- to|ve- * *|lo,|po- st'a ba-|gnar' un leg- gia-|det- to ve-|lo, un|
 G2 E2 F2 G2 |"^-natural" AB cd ed cB | A2 G4 ^F2 | G8 | d8 | d4 d4 | ^c2 d2 e2 f2 | g2 e2 d4 | %56
w: leg- gia- det- to|ve- * * * * * * *||lo,|ch'a|Laur' il|va- go'e bion- do|ca- pel chiu-|
 e4 c4- | c4 c4 | c4 A4 | A2 A4 A2 |"^-natural" c2 c2 _B4 | A2 c4 c2 | A2 A2 B4 | ^c2 e2 d2 c2 | %64
w: da, tal|_ che|mi fe-|ce'hor- quan- d'eg-|l'ar- d'il cie-|lo, quan- d'eg-|l'ar- d'il cie-|lo, tut- to tre-|
 d4 z4 | z2 g2 c2 e2 | d6 g2 | f2 e2 d2 d2 | e2 g2 g2 ^f2 | g2 d2 z4 | d4 c2 B2 | A2 A2 B2 d2 | %72
w: mar,|tut- to tre-|mar, tut-|to tre- mar d'un|a- mo- ro- so|gie- lo,|tut- to tre-|mar d'un a- mo-|
 d2 ^c2 d4 | B8- | B8 |] %75
w: ro- so gie-|lo.|_|
V:2
 z8 | D4 E2 F2 | G4 A4 | F4 E2 D2- | D2 C2 D2 E2 | z2 G4 c2- | c2 B2 A4 | G2 G4 ^F2 | G2 G2 A2 D2 | %9
w: |Non al suo'a-|man- te|piu Di- a-|* na piac- que,|non al|_ suo'a- man-|te piu Di-|a- na piac- que,|
 z4 G4 | F2 E2 D4 | C2 G4 G2 | E2 E2 A2 D2 | z4 z2 A2 | ^F2 F2 G2 G2 | A4 G4- | G4 A4 | %17
w: non|al suo'a- man-|te piu Di-|a- na piac- que,|quan-|do per tal ven-|tu- ra,|_ quan-|
 D2 D2 E2 E2 | G8 | G4 A4 | F4 G4 | A4 G4 | F4 F4 | D4 F2 F2 | F4 F4- | F2 F2 E2 F2 | G2 F2 E2 DC | %27
w: do per tal ven-|tu-|ra tut-|t'ig- nu-|da, la|vi- de'in|me- zo de|le ge-|* lid' ac- *||
 B,2 A,2 G,2 A,2 | B,2 C2 D2 E2 | ^F2 G2 A4 | B4 B4 | B2 B2 G2 A2 | B6 A2 | G4 C4 | G4 G4 | _B8 | %36
w: |||que, ch'a|me la pa- sto-|rel- *|* l'al-|pe- str'e|cru-|
 A8- | A4 E4 | A,2 B,2 C2 D2 | E8 | E4 F4 | A4 G2 E2 | ^F2 F2 G4 | D4 G4 | _B4 A4 | G4 A4 | %46
w: da,|_ po-|st'a _ _ _|_|ba- gnar'|un leg- gia-|det- to ve-|lo, po-|st'a ba-|gnar' un|
 G2 E2 F2 G2 | A4 A4 | z4 D4 |"^-natural" C2 A,2 B,2 C2 | D8 | B,8- | B,4 B,4 | D6 G2 | %54
w: leg- gia- det- to|ve- lo,|un|le- gia- det- to|ve-|lo,|_ ch'a|Laur' il|
 E2 D2 G2 A2 | B2 c2 B4 | c4 A4- | A4 A4 | G4 F4 | E2 E4 F2 | G2 A2 F4 | F2 A4 G2 | F2 A2 ^G4 | %63
w: va- go'e bion- do|ca- pel chiu-|da, tal|_ che|mi fe-|ce'hor quan- d'eg-|l'ar- d'il de-|lo, quan- d'eg-|l'ar- d'il de-|
 A2 G2 G2 A2 | BBBB c2 G2 | G4 G2 c2 | B2 A2 G2 G2 | A2 c2 c2 B2 | c4 A4 |"^-natural" z2 G2 F2 E2 | %70
w: lo, tut- to tre-|mar d'un a- mo- ro- so|gie- lo, tut-|to tre- mar d'un|a- mo- ro- so|gie- lo,|tut- to tre-|
 DDAA G2 G2 | D4 D2 D2 | E2 G2 G2 ^F2 | G8 | G8 |] %75
w: mar d'un a- mo- ro- so|gie- lo, d'un|a- mo- ro- so|gie-|lo.|
V:3
 z8 | z8 | z8 | z4 z2 d2 | e2 f2 g4- | g4 e2 a2- | a2 g2 f2 f2 | e4 d2 d2 | c2 B2 A4 | G2 c4 B2 | %10
w: |||Non|al suo'a- man-|* te piu|_ Di- a- na|piac- que, non|al suo'a- man-|te piu Di-|
 c2 c2 f4 | e4 g4- | g4 ^f4 | g2 g2 a4 | d4 e4 | ^c2 c2 d2 d2 | e4 d2 d2 | B2 B2 c2 c2 | d8 | %19
w: a- na piac-|que, piu|_ Di-|a- na plac-|que, quan-|do per tal ven-|tu- ra, quan-|do per tal ven-|tu-|
 e4 c4 | A4 c4- | c2 c2 B4 | A4 A4 | B4 c2 c2 | d4 c4- | c2 c2 c2 d2 | e2 f2 g2 fe | d2 c2 B2 A2 | %28
w: ra tut-|t'ig- nu-|* da, la|vi- de'in|me- zo de|le ge-|* lid' ac- *|||
 G2 A2 B2 c2 | d2 e2 d4 | G8- | G8 | z4 B4 | B2 B2 G2 A2 | B8 | d4 e4- | e4 d4- | d4 c4- | %38
w: ||que,|_|ch'a|me la pa- sto-|rel-|l'al- pe-|* str'e|_ cru-|
 c2 B2 A4- | A4 ^G4 | A4 a4 | f4 g4 | a4 d4 | f4 e4 | d2 g2 f2 d2 | e6 f2 | e2 dc d4 | e4 A4 | %48
w: ||da, po-|st'a ba-|gnar', po-|st'a ba-|gnar' un leg- gia-|det- to|ve- * * *|lo, po-|
 c4 _B4 | A2 a2 g2 e2 | f2 g2 a4 | d8 | z4 g4 | a4 _b4 |"^-natural" a2 g2 e2 c2 | d2 e2 g4 | %56
w: st'a ba-|gnar' un leg- gia-|det- to ve-|lo,|ch'a|Laur' il|va- go'e bion- do|ca- pel chiu-|
 g4 f4- | f4 f4 | e4 d4 | ^c2 c4 d2 | e2 e2 d4 | c2 f4 e2 | d2 c2 e4 | e4 z4 | g4 f2 e2 | %65
w: da, tal|_ che|mi fe-|ce'hor quan- d'eg-|l'ar- d'il de-|lo, quan- d'eg-|l'ar- d'il de-|lo,|tut- to tre-|
 d2 d2 e2 g2 | g2 ^f2 g2 c2 | z4 z2 g2 | c2 e2 d2 d2 | e2 d2 d2 c2 | f4 e2 d2 | d2 A2 dc BA | %72
w: mar d'un a- mo-|ro- so gie- lo,|tut-|to tre- mar d'un|a- mo- ro- so|gie- lo, d'un|a- mo- ro- * * *|
 G2 G2 A4 | G8- | G8 |] %75
w: * so gie-|lo.|_|
V:4
 z8 | z8 | z8 | d4 c2 B2 | A4 G2 c2- | c2 B2 c2 c2 | d8 | G4 z4 | z4 D4 | E2 F2 G4 | A4 z4 | %11
w: |||Non al suo'a-|man- te piu|_ Di- a- na|piac-|que,|non|al suo'a- man-|te|
 z2 c4 B2 | c2 c2 d4 | G4 z4 | z8 | z4 G4 | E2 E2 ^F2 F2 | G8 | G4 G4 | C4 F4- | F2 F2 E4 | D8- | %22
w: piu Di-|a- na piac-|que,||quan-|do per tal ven-|tu-|ra tut'|t'ig- nu-|* da la|vi-|
 D4 D4 | G4 F2 F2 | _B4 F4- | F2 F2 C4- | C2 D2 E2 F2 | G2 A2 B2 c2 | d4 G4 | z4 z2 d2 | %30
w: * de'in|me- zo de|le ge-|* lid' ac-|||* que,|ch'a|
 d2 d2 B2 c2 | d8 | G4 G4 | G2 G2 E2 F2 | G8- | G4 G4 | A8- | A4 A4 | F8 | E8 | z4 D4 | F4 E4 | %42
w: me la pa- sto-|rel-|la, ch'a|me la pa- sto-|rel-|* l'al-|pe-|* str'e|cru-|da,|po-|st'a ba-|
 D4 G4 | F2 D2 E2 F2 | G4 D4 | z4 A4 | c4 _B4 | A4 F4 | E2 C2 D2 E2 | F4 E4 | z8 | G8 | G4 G4 | %53
w: gnar', un-|leg- gia- det- to|ve- lo,|po-|st'a ba-|gnar un|leg- gia- det- to|ve- lo,||ch'a|Laur' il|
 ^F4 G4 |"^-natural" A2 B2 c2 A2 | G8 | C4 F4- | F4 F4 |"^-natural" C4 D4 | A2 A4 d2 | %60
w: va- go|bion- do ca- pel|chiu-|da, tal|_ che|mi fe-|ce'hor quan- d'eg-|
"^-natural" c2 A2 _B4 | F2 F4 C2 | D2 F2 E4 |"^-natural" A2 c2 B2 A2 | G2 G2 A2 c2 | c2 B2 c4 | %66
w: l'ar- d'il de-|lo, quan- d'eg-|l'ar- d'il de-|lo, tut- to tre-|mar d'un a- mo-|ro- so gie-|
 d4 z4 | z8 | z4 z2 d2 | c2 B2 A4 | z2 D2 E2 G2 |"^-natural" G2 ^F2 G3 F | E4 D4 | G,8- | G,8 |] %75
w: lo,||tut-|to tre- mar|d'un a- mo-|ro- so gie- *||lo|_|

